X:1
T:Buxtehude - Aria:  La Capricciosa in G Minor.
%%score { ( 1 2 ) | ( 3 4 ) }
L:1/8
Q:1/4=100
M:4/4
K:G
V:1 treble nm="Harpsichord" snm="Hch."
V:2 treble 
V:3 bass 
V:4 bass 
V:1
"^Partita 4"!f! d2 Pd2 e2 Pe2 | d2 =c2 MB2 G2 | PB>c d2 c2 B2 | A2 A2 G2 G2 :: B2 PB2 c2 Pc2 | %5
 A2- A/=c/B/A/ MB>A G/e/Md/c/ | B2- B/d/Pc/B/ c2 MB2 | A4 G4 :| %8
V:2
 z/ F/E/F/ PG2 z/ G/F/G/ PA2 | A2 A2 MG2 D2 | x2 z B- B A2 G- | G2 F2 G2 MD2 :: %4
 z/ D/C/D/ PE2 z/ E/F/G/ PA2 | x8 | z/ F/E/F/ G2 z/ F/E/F/ G2- | G/E/F/G/ TF2 D4 :| %8
V:3
 z2 z B, C2 z G- | G2- GF D2 B,2 | D/E/D/C/ B,/A,/G,/G/ E/F/E/F/ GB, | %3
 z/ ^C/B,/C/ DD, G,/D,/B,,/=C,/ MB,2 :: z2 z G, A,2 z/ B,/A,/G,/ | z/ ^C/B,/C/ D2- D/E/D/=C/ B,C | %6
 D2 x6 | x2 D>=C B,4 :| %8
V:4
 x6 z ^C | D/^C,/B,,/C,/ D,D,, G,,/F,/E,/F,/ G,G,, | x8 | x6 D,G,, :: x8 | F,2 z F, G,4 | %6
 G,2 z G, A,2 z/ B,/A,/B,/ | C^C z D, z G,,3 :| %8

